X:1
T:(unknown title)
M:4/4
L:1/4
K:F
 z2 z C| C2 C D| F F3| A A2 G| F2 z2| z2 C C| D2 D E| F F2 E| F2 F D|\
 C2 z2| z2 z C| C C C C| C2 F G| A2 A- G| F2 z F| G2 G G| F2 E2| F4|\
 z4| C3 C| C C F G| A4| F2 z2| D3 E| F G F D| C4| C2 z2| C3 D| F F F G|\
 A4| F2 z2| G2 G G| F2 E2| F4|

